flaticon/programming-line/c-document.svg

<svg xmlns="http://www.w3.org/2000/svg" width="32" height="32" viewBox="0 0 24 24">
    <path d="M 22.121094 4.824219 C 22.117188 4.816406 22.117188 4.808594 22.117188 4.800781 C 22.117188 4.796875 22.113281 4.792969 22.113281 4.792969 C 22.113281 4.78125 22.109375 4.773438 22.105469 4.761719 C 22.105469 4.761719 22.105469 4.757812 22.105469 4.757812 C 22.101562 4.75 22.097656 4.738281 22.097656 4.730469 C 22.09375 4.730469 22.09375 4.726562 22.09375 4.726562 C 22.089844 4.71875 22.085938 4.707031 22.082031 4.699219 C 22.082031 4.699219 22.082031 4.695312 22.078125 4.695312 C 22.074219 4.6875 22.070312 4.679688 22.066406 4.671875 C 22.066406 4.667969 22.0625 4.667969 22.0625 4.664062 C 22.058594 4.65625 22.050781 4.652344 22.046875 4.644531 C 22.042969 4.640625 22.042969 4.640625 22.042969 4.636719 C 22.035156 4.628906 22.027344 4.621094 22.019531 4.613281 L 17.507812 0.101562 C 17.5 0.09375 17.492188 0.0859375 17.484375 0.0820312 C 17.480469 0.078125 17.480469 0.078125 17.476562 0.0742188 C 17.46875 0.0703125 17.464844 0.0625 17.457031 0.0585938 C 17.453125 0.0585938 17.453125 0.0585938 17.449219 0.0546875 C 17.441406 0.0507812 17.433594 0.046875 17.425781 0.0429688 C 17.425781 0.0390625 17.421875 0.0390625 17.421875 0.0390625 C 17.414062 0.0351562 17.402344 0.03125 17.394531 0.0273438 C 17.394531 0.0273438 17.394531 0.0273438 17.390625 0.0273438 C 17.382812 0.0234375 17.371094 0.0195312 17.363281 0.015625 C 17.363281 0.015625 17.359375 0.015625 17.359375 0.015625 C 17.347656 0.0117188 17.339844 0.0078125 17.328125 0.0078125 C 17.328125 0.0078125 17.324219 0.0078125 17.320312 0.00390625 C 17.3125 0.00390625 17.304688 0.00390625 17.296875 0 C 17.285156 0 17.273438 0 17.261719 0 L 6.738281 0 C 5.714844 0 4.882812 0.832031 4.882812 1.855469 L 4.882812 3.757812 L 3.359375 3.757812 C 2.542969 3.757812 1.878906 4.421875 1.878906 5.238281 L 1.878906 8.992188 C 1.878906 9.808594 2.542969 10.472656 3.359375 10.472656 L 4.882812 10.472656 L 4.882812 22.144531 C 4.882812 23.167969 5.714844 24 6.738281 24 L 20.265625 24 C 21.289062 24 22.121094 23.167969 22.121094 22.144531 L 22.121094 4.859375 C 22.121094 4.847656 22.121094 4.835938 22.121094 4.824219 Z M 17.613281 1.203125 L 20.917969 4.507812 L 18.761719 4.507812 C 18.128906 4.507812 17.613281 3.992188 17.613281 3.359375 Z M 2.582031 8.992188 L 2.582031 5.238281 C 2.582031 4.808594 2.929688 4.460938 3.359375 4.460938 L 13.878906 4.460938 C 14.304688 4.460938 14.652344 4.808594 14.652344 5.238281 L 14.652344 8.992188 C 14.652344 9.421875 14.304688 9.769531 13.878906 9.769531 L 5.238281 9.769531 C 5.238281 9.769531 5.234375 9.769531 5.234375 9.769531 L 3.359375 9.769531 C 2.929688 9.769531 2.582031 9.421875 2.582031 8.992188 Z M 20.265625 23.296875 L 6.738281 23.296875 C 6.105469 23.296875 5.589844 22.777344 5.589844 22.144531 L 5.589844 10.472656 L 13.878906 10.472656 C 14.695312 10.472656 15.359375 9.808594 15.359375 8.992188 L 15.359375 5.238281 C 15.359375 4.421875 14.695312 3.757812 13.878906 3.757812 L 5.589844 3.757812 L 5.589844 1.855469 C 5.589844 1.222656 6.105469 0.703125 6.738281 0.703125 L 16.90625 0.703125 L 16.90625 3.359375 C 16.90625 4.382812 17.742188 5.214844 18.761719 5.214844 L 21.417969 5.214844 L 21.417969 22.144531 C 21.417969 22.777344 20.902344 23.296875 20.265625 23.296875 Z M 20.265625 23.296875"/>
    <path d="M14.628906 15.40625C14.539062 15.40625 14.445312 15.441406 14.382812 15.507812 14.316406 15.574219 14.277344 15.664062 14.277344 15.757812 14.277344 15.851562 14.316406 15.941406 14.382812 16.007812 14.445312 16.070312 14.539062 16.109375 14.628906 16.109375 14.722656 16.109375 14.8125 16.070312 14.878906 16.007812 14.945312 15.941406 14.980469 15.851562 14.980469 15.757812 14.980469 15.664062 14.945312 15.574219 14.878906 15.507812 14.8125 15.441406 14.722656 15.40625 14.628906 15.40625zM14.628906 18.035156C14.539062 18.035156 14.445312 18.074219 14.382812 18.136719 14.316406 18.203125 14.277344 18.296875 14.277344 18.386719 14.277344 18.480469 14.316406 18.570312 14.382812 18.636719 14.445312 18.703125 14.539062 18.738281 14.628906 18.738281 14.722656 18.738281 14.8125 18.703125 14.878906 18.636719 14.945312 18.570312 14.980469 18.480469 14.980469 18.386719 14.980469 18.296875 14.945312 18.203125 14.878906 18.136719 14.8125 18.074219 14.722656 18.035156 14.628906 18.035156zM5.238281 8.96875C5.652344 8.96875 6.050781 8.792969 6.332031 8.476562 6.464844 8.332031 6.453125 8.109375 6.308594 7.980469 6.164062 7.851562 5.941406 7.863281 5.808594 8.007812 5.660156 8.175781 5.457031 8.265625 5.238281 8.265625L4.859375 8.265625C4.433594 8.265625 4.085938 7.917969 4.085938 7.492188L4.085938 6.738281C4.085938 6.3125 4.433594 5.964844 4.859375 5.964844L5.238281 5.964844C5.457031 5.964844 5.660156 6.058594 5.808594 6.222656 5.941406 6.367188 6.164062 6.378906 6.308594 6.25 6.453125 6.121094 6.464844 5.898438 6.332031 5.753906 6.050781 5.441406 5.652344 5.261719 5.238281 5.261719L4.859375 5.261719C4.046875 5.261719 3.382812 5.925781 3.382812 6.738281L3.382812 7.492188C3.382812 8.308594 4.046875 8.96875 4.859375 8.96875zM7.492188 7.46875L8.265625 7.46875 8.265625 8.242188C8.265625 8.4375 8.425781 8.59375 8.617188 8.59375 8.8125 8.59375 8.96875 8.4375 8.96875 8.242188L8.96875 7.46875 9.746094 7.46875C9.941406 7.46875 10.097656 7.308594 10.097656 7.117188 10.097656 6.921875 9.941406 6.761719 9.746094 6.761719L8.96875 6.761719 8.96875 5.988281C8.96875 5.792969 8.8125 5.636719 8.617188 5.636719 8.425781 5.636719 8.265625 5.792969 8.265625 5.988281L8.265625 6.761719 7.492188 6.761719C7.296875 6.761719 7.140625 6.921875 7.140625 7.117188 7.140625 7.308594 7.296875 7.46875 7.492188 7.46875zM11.25 7.46875L12.023438 7.46875 12.023438 8.242188C12.023438 8.4375 12.179688 8.59375 12.375 8.59375 12.570312 8.59375 12.726562 8.4375 12.726562 8.242188L12.726562 7.46875 13.503906 7.46875C13.699219 7.46875 13.855469 7.308594 13.855469 7.117188 13.855469 6.921875 13.699219 6.761719 13.503906 6.761719L12.726562 6.761719 12.726562 5.988281C12.726562 5.792969 12.570312 5.636719 12.375 5.636719 12.179688 5.636719 12.023438 5.792969 12.023438 5.988281L12.023438 6.761719 11.25 6.761719C11.054688 6.761719 10.894531 6.921875 10.894531 7.117188 10.894531 7.308594 11.054688 7.46875 11.25 7.46875zM11.625 14.605469L12 14.605469C12.332031 14.605469 12.652344 14.710938 12.917969 14.914062 13.070312 15.03125 13.292969 15 13.410156 14.84375 13.527344 14.6875 13.496094 14.464844 13.339844 14.347656 12.953125 14.058594 12.488281 13.902344 12 13.902344L11.625 13.902344C10.1875 13.902344 9.015625 15.070312 9.015625 16.507812L9.015625 17.636719C9.015625 19.074219 10.1875 20.242188 11.625 20.242188L12 20.242188C12.488281 20.242188 12.949219 20.089844 13.339844 19.796875 13.496094 19.679688 13.527344 19.457031 13.410156 19.304688 13.292969 19.148438 13.070312 19.117188 12.914062 19.234375 12.648438 19.433594 12.332031 19.539062 12 19.539062L11.625 19.539062C10.574219 19.539062 9.722656 18.683594 9.722656 17.636719L9.722656 16.507812C9.722656 15.460938 10.574219 14.605469 11.625 14.605469zM15.714844 13.390625C15.652344 13.207031 15.453125 13.105469 15.269531 13.167969 15.085938 13.230469 14.984375 13.429688 15.046875 13.613281L17.300781 20.378906C17.351562 20.523438 17.488281 20.617188 17.636719 20.617188 17.671875 20.617188 17.710938 20.613281 17.746094 20.601562 17.933594 20.539062 18.03125 20.339844 17.96875 20.15625zM15.714844 13.390625"/>
</svg>

<svg xmlns="http://www.w3.org/2000/svg" width="32" height="32" viewBox="0 0 24 24">
    <path d="M22.121 4.824c-.004-.008-.004-.015-.004-.023 0-.004-.004-.008-.004-.008 0-.012-.004-.02-.008-.031v-.004a.072.072 0 0 1-.007-.028c-.004 0-.004-.003-.004-.003l-.012-.028s0-.004-.004-.004l-.012-.023c0-.004-.003-.004-.003-.008-.004-.008-.012-.012-.016-.02-.004-.003-.004-.003-.004-.007l-.023-.024L17.508.102c-.008-.008-.016-.016-.024-.02l-.007-.008c-.008-.004-.012-.011-.02-.015-.004 0-.004 0-.008-.004l-.023-.012c0-.004-.004-.004-.004-.004l-.027-.012h-.004l-.028-.011h-.004c-.011-.004-.02-.008-.03-.008 0 0-.005 0-.009-.004-.008 0-.015 0-.023-.004H6.738a1.857 1.857 0 0 0-1.855 1.855v1.903H3.359c-.816 0-1.48.664-1.48 1.48v3.754c0 .817.664 1.48 1.48 1.48h1.524v11.673c0 1.023.832 1.855 1.855 1.855h13.528a1.857 1.857 0 0 0 1.855-1.855V4.859v-.035zm-4.508-3.62l3.305 3.304h-2.156a1.15 1.15 0 0 1-1.149-1.149zM2.582 8.991V5.238c0-.43.348-.777.777-.777h10.52c.426 0 .773.348.773.777v3.754c0 .43-.347.778-.773.778h-8.64-1.88a.777.777 0 0 1-.777-.778zm17.684 14.305H6.738c-.633 0-1.148-.52-1.148-1.152V10.473h8.289c.816 0 1.48-.664 1.48-1.48V5.237c0-.816-.664-1.48-1.48-1.48h-8.29V1.855c0-.632.516-1.152 1.15-1.152h10.167V3.36a1.86 1.86 0 0 0 1.856 1.856h2.656v16.93c0 .632-.516 1.152-1.152 1.152zm0 0"/>
    <path d="M14.629 15.406a.355.355 0 0 0-.352.352.355.355 0 0 0 .352.351c.094 0 .184-.039.25-.101a.351.351 0 0 0 .101-.25.351.351 0 0 0-.101-.25.351.351 0 0 0-.25-.102zm0 0M14.629 18.035a.36.36 0 0 0-.246.102.362.362 0 0 0-.106.25.355.355 0 0 0 .352.351.351.351 0 0 0 .25-.101.358.358 0 0 0 0-.5.369.369 0 0 0-.25-.102zm0 0M5.238 8.969c.414 0 .813-.176 1.094-.492a.348.348 0 0 0-.023-.497.357.357 0 0 0-.5.028.751.751 0 0 1-.57.258h-.38a.775.775 0 0 1-.773-.774v-.754c0-.426.348-.773.773-.773h.38c.218 0 .421.094.57.258a.357.357 0 0 0 .5.027.348.348 0 0 0 .023-.496 1.476 1.476 0 0 0-1.094-.492H4.86a1.48 1.48 0 0 0-1.476 1.476v.754c0 .817.664 1.477 1.476 1.477zm0 0M7.492 7.469h.774v.773c0 .195.16.352.351.352a.35.35 0 0 0 .352-.352V7.47h.777a.353.353 0 1 0 0-.707H8.97v-.774a.35.35 0 0 0-.352-.351.353.353 0 0 0-.351.351v.774h-.774a.353.353 0 0 0 0 .707zm0 0M11.25 7.469h.773v.773a.35.35 0 0 0 .352.352.35.35 0 0 0 .352-.352V7.47h.777a.353.353 0 1 0 0-.707h-.777v-.774a.35.35 0 0 0-.352-.351.35.35 0 0 0-.352.351v.774h-.773a.357.357 0 0 0-.355.355c0 .192.16.352.355.352zm0 0M11.625 14.605H12c.332 0 .652.106.918.31a.35.35 0 0 0 .492-.071.355.355 0 0 0-.07-.496 2.227 2.227 0 0 0-1.34-.446h-.375a2.61 2.61 0 0 0-2.61 2.606v1.129a2.61 2.61 0 0 0 2.61 2.605H12c.488 0 .95-.152 1.34-.445a.35.35 0 0 0 .07-.492.355.355 0 0 0-.496-.07c-.266.199-.582.304-.914.304h-.375a1.905 1.905 0 0 1-1.902-1.902v-1.13c0-1.046.851-1.902 1.902-1.902zm0 0M15.715 13.39a.353.353 0 0 0-.668.223L17.3 20.38a.357.357 0 0 0 .445.223.35.35 0 0 0 .223-.446zm0 0"/>
</svg>
